X:99
T:WHRGOPM- Where are you going my pretty maid?
S:Stanford-Petrie #774
Q:1/4=100
L:1/8
M:2/4
K:Am
c/d/|(eA) AA|EA AB/c/|(dB) GB|(d2e) e/d/|cB/A/ BA|\
(GA) A(B/c/)|(dB) GB|(d2e) c/d/|e/d/e/^f/ gf/g/|\
a^f gf/g/|ec BA|e^f gc|BAA2|B/c/d/B/ GA/B/|\
cd ec|~B2.A|]

